resources/haticons/SVG/remove_moderator.svg

<!-- Generated by IcoMoon.io -->
<svg version="1.1" xmlns="http://www.w3.org/2000/svg" width="24" height="24" viewBox="0 0 24 24">
<title>remove_moderator</title>
<path d="M19.688 16.594l-13.172-13.172 5.484-2.438 9 4.031v6q0 2.859-1.313 5.578zM22.266 21.75l-1.266 1.266-3.422-3.422q-2.438 2.672-5.578 3.422-3.844-0.938-6.422-4.383t-2.578-7.617v-6l-2.016-2.016 1.266-1.266 5.203 5.203t6.094 6.070 5.203 5.18z"></path>
</svg>

<svg xmlns="http://www.w3.org/2000/svg" width="24" height="24"><path d="M19.688 16.594L6.516 3.422 12 .984l9 4.031v6q0 2.859-1.313 5.578zm2.578 5.156L21 23.016l-3.422-3.422Q15.14 22.266 12 23.016q-3.844-.938-6.422-4.383T3 11.016v-6L.984 3 2.25 1.734l5.203 5.203 6.094 6.07 5.203 5.18z"/></svg>
